X:1
T:Silhouettes
T:SILHOUETTES
T:Moderately
C:Frank C. Slay, Bob Crewe
Z:All Rights Reserved
L:1/8
M:4/4
K:F
V:1 treble 
%%MIDI program 0
V:1
"F" z2 F>G"Dm" A>FG>A |"Gm" G4"C7" A2 A2 |"F" F2 F>G"Dm" A>FG>A |"Gm" G4"C7" A2 A2 | %4
w: Took a walk and passed your|house late last|night, All the shades were pulled and|drawn 'way down|
w: Lost con- trol, and rang your|bell, I was|sore, "Let me in or else I'll|beat down your|
w: ||||
"F" F2 F>G"Dm" A>FG>A |"Gm" G3 A"C7" (3GGF E>G |"F" F2 (3FFE"Dm" D3 F |"Gm" G G2 F"C7" A2 G2 | %8
w: tight; From with- in a dim light|cast two Sil- hou- ettes on the|shade, Oh, what a love- ly|cou- ple they made.. _|
w: door?' When two stran- gers, who had|been two Sil- hou- ettes on the|shade said to my shock, "You're|on the wrong block?' _|
w: ||||
"F" z2 F>G"Dm" A>FG>A |"Gm" G4"C7" A2 A2 |"F" F2 F>G"Dm" A>FG>A |"Gm" G4"C7" A2 A2 | %12
w: Put his arms a- round your|waist, held you|tight, Kiss- es I could al- most|taste in the|
w: Rushed down to your house with|wings on my|feet, loved you like I've nev- er|loved you my|
w: * * * yonr * *||||
"F" F2 F>G"Dm" A>FG>A |"Gm" G3 A"C7" (3GGF E>F |"F" F2 (3FFE"Dm" D3 F |1"Gm" G2"C7" AG"F" F2 z2 | %16
w: night, Won- der'd why I'm not the|guy whose sil- hou- ettes on the|shade I could- n't hide the|tears in my eyes.|
w: sweet, Vowed that you and I would|be two Sil- hou- ettes on the|shade All of our days, two||
w: ||||
 z2 F>G"Dm" A>FG>A |"Gm" B2 B>A"C7" G>AB>G |"F" A2 A>B"D7" c>AB>c |"Gm" d2"C7" E2"F" F2 z2 :|2 %20
w: Ah, _ _ _ _ _|_ _ _ _ _ _ _|||
w: ||||
w: ||||
"Gm" (3GGG"C7" A>G"F" F2 z2 |: z2"F" F>G"Dm" A>FG>A |"Gm" B2 B>A"C7" G>AB>G | %23
w: Sil- hou- ettes on the shade.|Ah _ _ _ _ _|_ _ _ _ _ _ _|
w: |||
w: |||
"F" A2 A>B"D7" c>AB>c |1"Gm" B2 c2"C7" A2 G2 :|2"Gm" B2"C7" E2"F" F2 z2 || %26
w: ||~ _ _|
w: |||
w: |||

